packages/match-logos/mono/svg/bettervoice.svg

<svg fill="none" height="28" viewBox="0 0 180 28" width="180" xmlns="http://www.w3.org/2000/svg" xmlns:xlink="http://www.w3.org/1999/xlink"><clipPath id="a"><path d="m0 0h179.9v28h-179.9z"/></clipPath><g clip-path="url(#a)"><path d="m48.629 13.4736c1.8928-.6986 2.912-2.534 2.912-4.6298 0-3.0576-1.7472-5.2416-5.5328-5.2416h-7.658v20.384h7.3668c3.4944 0 6.4064-1.456 6.4064-5.5335 0-2.471-1.456-4.3645-3.4944-4.977zm-6.6976-6.7844h3.115c1.5442 0 2.7671.6986 2.7671 2.562 0 1.778-.931 2.7965-2.7664 2.7965h-3.115v-5.3557zm3.0282 14.2394h-3.0282v-5.7946h3.64c1.7185 0 2.8245.9898 2.8245 2.94 0 1.981-1.2229 2.8546-3.437 2.8546zm16.436-11.7936c-4.7166 0-7.0756 2.7664-7.0756 7.8036 0 4.8629 2.3009 7.3381 6.6976 7.3381 1.7185 0 3.7856-.2884 5.2416-.8708v-2.7699c-1.253.4956-3.1451.875-4.571.875-2.156 0-3.5826-1.1648-3.6694-4.3099h8.5904c.9604-4.2805-.175-8.0661-5.2129-8.0661zm2.0678 5.6784h-5.2416c.2912-2.1259 1.5141-2.8826 2.9414-2.8826 2.184 0 2.562 1.484 2.3002 2.8826zm12.1534 6.4064c.525 0 1.1942-.0875 2.0678-.378v2.8532c-.8155.2912-2.534.5824-3.5238.5824-1.9222 0-3.7275-.5824-3.7275-3.4944v-8.8235h-1.6625v-2.2421l1.659-.2912.7868-4.368h2.8245v4.368h3.4356v2.534h-3.4356v7.28c0 1.484.4669 1.9796 1.5729 1.9796zm10.6218 0c.525 0 1.1942-.0875 2.0678-.378v2.8532c-.8155.2912-2.534.5824-3.5238.5824-1.9222 0-3.7275-.5824-3.7275-3.4944v-8.8235h-1.659v-2.2421l1.659-.2912.7861-4.368h2.8245v4.368h3.437v2.534h-3.437v7.28c.0035 1.484.469 1.9796 1.575 1.9796zm10.8458-12.0848c-4.718 0-7.077 2.7664-7.077 7.8036 0 4.8629 2.3009 7.3381 6.699 7.3381 1.7178 0 3.7846-.2884 5.2406-.8708v-2.7699c-1.253.4956-3.1476.875-4.5742.875-2.1546 0-3.5819-1.1648-3.668-4.3099h8.5892c.961-4.2805-.175-8.0661-5.2124-8.0661zm2.0671 5.6784h-5.2416c.2912-2.1259 1.5141-2.8826 2.9414-2.8826 2.184 0 2.562 1.484 2.2974 2.8826zm9.8555-3.64c1.515-1.253 2.621-2.0384 4.571-2.0384v3.087c-1.6 0-3.144.1449-4.629 1.0185v10.745h-3.582v-14.56l3.29-.2912h.292v2.037h.058zm17.527-7.5712h3.931l-5.796 20.5296h-4.543l-5.852-20.5296h3.929l4.222 15.869h.059l4.047-15.869zm10.717 5.5328c-4.805 0-6.755 3.1738-6.755 7.5712s1.98 7.5712 6.755 7.5712 6.727-3.1738 6.727-7.5712-1.981-7.5712-6.727-7.5712zm0 12.376c-2.096 0-3.058-1.428-3.058-4.8055 0-3.3488.961-4.7754 3.058-4.7754 2.067 0 3.028 1.4266 3.028 4.7754 0 3.3782-.963 4.8048-3.031 4.8048zm12.811-12.376h.292v14.8505h-3.579v-14.56l3.29-.2905zm-3.29-7.1631h3.582v3.843h-3.579v-3.843zm13.664 7.1631c1.312 0 3.35.2618 4.777.8442v2.7664c-1.078-.4368-2.971-.8155-4.513-.8155-2.648 0-3.929 1.631-3.929 4.7754 0 3.6694 1.893 4.8048 4.018 4.8048 1.456 0 3.262-.3815 4.427-.8176v2.7664c-1.428.553-3.552.8155-5.154.8155-4.281 0-6.99-2.4171-6.99-7.5712 0-4.8048 2.621-7.5712 7.367-7.5712zm13.751 0c-4.718 0-7.077 2.7664-7.077 7.8036 0 4.8629 2.3 7.3381 6.699 7.3381 1.717 0 3.784-.2884 5.24-.8708v-2.7699c-1.253.4956-3.144.875-4.571.875-2.156 0-3.582-1.1648-3.669-4.3099h8.589c.961-4.2805-.175-8.0661-5.211-8.0661zm2.067 5.6784h-5.239c.291-2.1259 1.515-2.8826 2.941-2.8826 2.184 0 2.562 1.484 2.3 2.8826zm-162.254-14.8134c-7.7294 0-14 6.2685-14 14 0 7.7301 6.2699 14 13.9979 14 7.7336 0 14.0021-6.2699 14.0021-14 0-7.7322-6.2692-14-14.0028-14zm.266 6.461c-.6142.00093-1.203.24533-1.6373.67966-.4344.43432-.6788 1.02312-.6797 1.63734v10.7086c.0081.6094.2557 1.1912.6892 1.6195.4336.4283 1.0183.6688 1.6278.6695.6146-.0006 1.2038-.245 1.6382-.6797.4345-.4347.6786-1.0241.6788-1.6387-.0004-.4861-.1538-.9598-.4383-1.354-.2845-.3941-.6858-.6888-1.147-.8423s-.9591-.1581-1.4231-.0131c-.4639.1451-.8705.4324-1.1622.8213v-2.3996c.576-.2852 1.2101-.4338 1.8529-.434 1.1189.0019 2.1915.4472 2.9827 1.2383.7911.7912 1.2364 1.8638 1.2383 2.9827 0 2.331-1.897 4.221-4.2224 4.221-1.1086-.0013-2.1722-.4381-2.9618-1.2163-.7895-.7782-1.2418-1.8354-1.2592-2.9438v-10.7394c.0019-1.11891.4472-2.19146 1.2383-2.98265.7912-.79119 1.8638-1.2365 2.9827-1.23835 2.3254 0 4.2224 1.8942 4.2224 4.221-.0015 1.11952-.4469 2.1927-1.2386 2.9843s-1.865 1.2368-2.9845 1.2381c-.643-.0001-1.2774-.1487-1.8536-.434v-2.3996c.2153.2882.4948.5222.8163.6834.3215.1613.6762.2453 1.0359.2455.3043 0 .6056-.0599.8867-.1764.2811-.1164.5365-.2871.7517-.5022.2151-.2152.3858-.47061.5022-.75172.1165-.28111.1764-.58241.1764-.88668s-.0599-.60557-.1764-.88668c-.1164-.28111-.2871-.53653-.5022-.75169-.2152-.21515-.4706-.38582-.7517-.50226s-.5824-.17637-.8867-.17637z" fill="#1f304c"/></g></svg>

<svg width="180" height="28" viewBox="0 0 180 28" fill="none" xmlns="http://www.w3.org/2000/svg">
<g clip-path="url(#clip0)">
<path d="M48.629 13.4736C50.5218 12.775 51.541 10.9396 51.541 8.8438C51.541 5.7862 49.7938 3.6022 46.0082 3.6022H38.3502V23.9862H45.717C49.2114 23.9862 52.1234 22.5302 52.1234 18.4527C52.1234 15.9817 50.6674 14.0882 48.629 13.4757V13.4736ZM41.9314 6.6892H45.0464C46.5906 6.6892 47.8135 7.3878 47.8135 9.2512C47.8135 11.0292 46.8825 12.0477 45.0471 12.0477H41.9321V6.692L41.9314 6.6892ZM44.9596 20.9286H41.9314V15.134H45.5714C47.2899 15.134 48.3959 16.1238 48.3959 18.074C48.3959 20.055 47.173 20.9286 44.9589 20.9286H44.9596ZM61.3956 9.135C56.679 9.135 54.32 11.9014 54.32 16.9386C54.32 21.8015 56.6209 24.2767 61.0176 24.2767C62.7361 24.2767 64.8032 23.9883 66.2592 23.4059V20.636C65.0062 21.1316 63.1141 21.511 61.6882 21.511C59.5322 21.511 58.1056 20.3462 58.0188 17.2011H66.6092C67.5696 12.9206 66.4342 9.135 61.3963 9.135H61.3956ZM63.4634 14.8134H58.2218C58.513 12.6875 59.7359 11.9308 61.1632 11.9308C63.3472 11.9308 63.7252 13.4148 63.4634 14.8134ZM75.6168 21.2198C76.1418 21.2198 76.811 21.1323 77.6846 20.8418V23.695C76.8691 23.9862 75.1506 24.2774 74.1608 24.2774C72.2386 24.2774 70.4333 23.695 70.4333 20.783V11.9595H68.7708V9.7174L70.4298 9.4262L71.2166 5.0582H74.0411V9.4262H77.4767V11.9602H74.0411V19.2402C74.0411 20.7242 74.508 21.2198 75.614 21.2198H75.6168ZM86.2386 21.2198C86.7636 21.2198 87.4328 21.1323 88.3064 20.8418V23.695C87.4909 23.9862 85.7724 24.2774 84.7826 24.2774C82.8604 24.2774 81.0551 23.695 81.0551 20.783V11.9595H79.3961V9.7174L81.0551 9.4262L81.8412 5.0582H84.6657V9.4262H88.1027V11.9602H84.6657V19.2402C84.6692 20.7242 85.1347 21.2198 86.2407 21.2198H86.2386ZM97.0844 9.135C92.3664 9.135 90.0074 11.9014 90.0074 16.9386C90.0074 21.8015 92.3083 24.2767 96.7064 24.2767C98.4242 24.2767 100.491 23.9883 101.947 23.4059V20.636C100.694 21.1316 98.7994 21.511 97.3728 21.511C95.2182 21.511 93.7909 20.3462 93.7048 17.2011H102.294C103.255 12.9206 102.119 9.135 97.0816 9.135H97.0844ZM99.1515 14.8134H93.9099C94.2011 12.6875 95.424 11.9308 96.8513 11.9308C99.0353 11.9308 99.4133 13.4148 99.1487 14.8134H99.1515ZM109.007 11.1734C110.522 9.9204 111.628 9.135 113.578 9.135V12.222C111.978 12.222 110.434 12.3669 108.949 13.2405V23.9855H105.367V9.4255L108.657 9.1343H108.949V11.1713H109.007V11.1734ZM126.534 3.6022H130.465L124.669 24.1318H120.126L114.274 3.6022H118.203L122.425 19.4712H122.484L126.531 3.6022H126.534ZM137.251 9.135C132.446 9.135 130.496 12.3088 130.496 16.7062C130.496 21.1036 132.476 24.2774 137.251 24.2774C142.026 24.2774 143.978 21.1036 143.978 16.7062C143.978 12.3088 141.997 9.135 137.251 9.135ZM137.251 21.511C135.155 21.511 134.193 20.083 134.193 16.7055C134.193 13.3567 135.154 11.9301 137.251 11.9301C139.318 11.9301 140.279 13.3567 140.279 16.7055C140.279 20.0837 139.316 21.5103 137.248 21.5103L137.251 21.511ZM150.062 9.135H150.354V23.9855H146.775V9.4255L150.065 9.135H150.062ZM146.772 1.9719H150.354V5.8149H146.775V1.9719H146.772ZM160.436 9.135C161.748 9.135 163.786 9.3968 165.213 9.9792V12.7456C164.135 12.3088 162.242 11.9301 160.7 11.9301C158.052 11.9301 156.771 13.5611 156.771 16.7055C156.771 20.3749 158.664 21.5103 160.789 21.5103C162.245 21.5103 164.051 21.1288 165.216 20.6927V23.4591C163.788 24.0121 161.664 24.2746 160.062 24.2746C155.781 24.2746 153.072 21.8575 153.072 16.7034C153.072 11.8986 155.693 9.1322 160.439 9.1322L160.436 9.135ZM174.187 9.135C169.469 9.135 167.11 11.9014 167.11 16.9386C167.11 21.8015 169.41 24.2767 173.809 24.2767C175.526 24.2767 177.593 23.9883 179.049 23.4059V20.636C177.796 21.1316 175.905 21.511 174.478 21.511C172.322 21.511 170.896 20.3462 170.809 17.2011H179.398C180.359 12.9206 179.223 9.135 174.187 9.135ZM176.254 14.8134H171.015C171.306 12.6875 172.53 11.9308 173.956 11.9308C176.14 11.9308 176.518 13.4148 176.256 14.8134H176.254ZM14 0C6.2706 0 0 6.2685 0 14C0 21.7301 6.2699 28 13.9979 28C21.7315 28 28 21.7301 28 14C28 6.2678 21.7308 0 13.9972 0H14ZM14.266 6.461C13.6518 6.46193 13.063 6.70633 12.6287 7.14066C12.1943 7.57498 11.9499 8.16378 11.949 8.778V19.4866C11.9571 20.096 12.2047 20.6778 12.6382 21.1061C13.0718 21.5344 13.6565 21.7749 14.266 21.7756C14.8806 21.775 15.4698 21.5306 15.9042 21.0959C16.3387 20.6612 16.5828 20.0718 16.583 19.4572C16.5826 18.9711 16.4292 18.4974 16.1447 18.1032C15.8602 17.7091 15.4589 17.4144 14.9977 17.2609C14.5365 17.1074 14.0386 17.1028 13.5746 17.2478C13.1107 17.3929 12.7041 17.6802 12.4124 18.0691V15.6695C12.9884 15.3843 13.6225 15.2357 14.2653 15.2355C15.3842 15.2374 16.4568 15.6827 17.248 16.4738C18.0391 17.265 18.4844 18.3376 18.4863 19.4565C18.4863 21.7875 16.5893 23.6775 14.2639 23.6775C13.1553 23.6762 12.0917 23.2394 11.3021 22.4612C10.5126 21.683 10.0603 20.6258 10.0429 19.5174V8.778C10.0448 7.65909 10.4901 6.58654 11.2812 5.79535C12.0724 5.00416 13.145 4.55885 14.2639 4.557C16.5893 4.557 18.4863 6.4512 18.4863 8.778C18.4848 9.89752 18.0394 10.9707 17.2477 11.7623C16.456 12.5539 15.3827 12.9991 14.2632 13.0004C13.6202 13.0003 12.9858 12.8517 12.4096 12.5664V10.1668C12.6249 10.455 12.9044 10.689 13.2259 10.8502C13.5474 11.0115 13.9021 11.0955 14.2618 11.0957C14.5661 11.0957 14.8674 11.0358 15.1485 10.9193C15.4296 10.8029 15.685 10.6322 15.9002 10.4171C16.1153 10.2019 16.286 9.94649 16.4024 9.66538C16.5189 9.38427 16.5788 9.08297 16.5788 8.7787C16.5788 8.47443 16.5189 8.17313 16.4024 7.89202C16.286 7.61091 16.1153 7.35549 15.9002 7.14033C15.685 6.92518 15.4296 6.75451 15.1485 6.63807C14.8674 6.52163 14.5661 6.4617 14.2618 6.4617L14.266 6.461Z" fill="#1F304C"/>
</g>
<defs>
<clipPath id="clip0">
<rect width="179.9" height="28" fill="white"/>
</clipPath>
</defs>
</svg>
